icons/cellphone.svg

<?xml version="1.0" encoding="UTF-8"?><svg id="uuid-5cdd114f-97db-40cb-a138-b54525867b1b" xmlns="http://www.w3.org/2000/svg" viewBox="0 0 50 50"><path d="M33.83,.81H15.67c-2.28,0-4.13,1.85-4.13,4.13V45.06c0,2.28,1.85,4.13,4.13,4.13h18.15c2.28,0,4.13-1.85,4.13-4.13V4.94c0-2.28-1.85-4.13-4.13-4.13Zm3.13,44.25c0,1.72-1.4,3.13-3.13,3.13H15.67c-1.72,0-3.13-1.4-3.13-3.13V4.94c0-1.72,1.4-3.13,3.13-3.13h18.15c1.72,0,3.13,1.4,3.13,3.13V45.06Z"/><path d="M33.92,8.25H15.58c-.28,0-.5,.22-.5,.5v29.33c0,.28,.22,.5,.5,.5h18.35c.28,0,.5-.22,.5-.5V8.75c0-.28-.22-.5-.5-.5Zm-.5,29.33H16.08V9.25h17.35v28.33Z"/><path d="M24.75,40.77c-1.35,0-2.44,1.1-2.44,2.44s1.1,2.44,2.44,2.44,2.44-1.1,2.44-2.44-1.1-2.44-2.44-2.44Z"/><path d="M22.25,5.48h5.13c.28,0,.5-.22,.5-.5s-.22-.5-.5-.5h-5.13c-.28,0-.5,.22-.5,.5s.22,.5,.5,.5Z"/><path d="M20.13,5.59c.34,0,.61-.27,.61-.61s-.27-.61-.61-.61-.61,.27-.61,.61,.27,.61,.61,.61Z"/></svg>

<svg id="b0063df6-9ed8-4a58-85c7-308e08b2f417" data-name="ICONS" xmlns="http://www.w3.org/2000/svg" viewBox="0 0 50 50"><path d="M33.83.81H15.67a4.14,4.14,0,0,0-4.13,4.13V45.06a4.14,4.14,0,0,0,4.13,4.13H33.83A4.14,4.14,0,0,0,38,45.06V4.94A4.14,4.14,0,0,0,33.83.81ZM37,45.06a3.13,3.13,0,0,1-3.13,3.13H15.67a3.13,3.13,0,0,1-3.13-3.13V4.94a3.13,3.13,0,0,1,3.13-3.13H33.83A3.13,3.13,0,0,1,37,4.94Z"/><path d="M33.92,8.25H15.58a.5.5,0,0,0-.5.5V38.08a.5.5,0,0,0,.5.5H33.92a.5.5,0,0,0,.5-.5V8.75A.5.5,0,0,0,33.92,8.25Zm-.5,29.33H16.08V9.25H33.42Z"/><path d="M24.75,40.77a2.44,2.44,0,1,0,2.44,2.44A2.44,2.44,0,0,0,24.75,40.77Z"/><path d="M22.25,5.48h5.13a.5.5,0,0,0,0-1H22.25a.5.5,0,0,0,0,1Z"/><path d="M20.13,5.59A.61.61,0,0,0,20.74,5a.61.61,0,0,0-.61-.61.62.62,0,0,0-.61.61A.61.61,0,0,0,20.13,5.59Z"/></svg>
